src/symbolic/places/folder-symbolic.svg

<?xml version="1.0" encoding="UTF-8" standalone="no"?>
<svg
   xmlns:osb="http://www.openswatchbook.org/uri/2009/osb"
   xmlns:dc="http://purl.org/dc/elements/1.1/"
   xmlns:cc="http://creativecommons.org/ns#"
   xmlns:rdf="http://www.w3.org/1999/02/22-rdf-syntax-ns#"
   xmlns:svg="http://www.w3.org/2000/svg"
   xmlns="http://www.w3.org/2000/svg"
   xmlns:sodipodi="http://sodipodi.sourceforge.net/DTD/sodipodi-0.dtd"
   xmlns:inkscape="http://www.inkscape.org/namespaces/inkscape"
   width="16"
   version="1.1"
   style="enable-background:new"
   id="svg7384"
   height="16"
   sodipodi:docname="folder-symbolic.svg"
   inkscape:version="0.92.4 (5da689c313, 2019-01-14)">
  <sodipodi:namedview
     pagecolor="#ffffff"
     bordercolor="#666666"
     borderopacity="1"
     objecttolerance="10"
     gridtolerance="10"
     guidetolerance="10"
     inkscape:pageopacity="0"
     inkscape:pageshadow="2"
     inkscape:window-width="1366"
     inkscape:window-height="711"
     id="namedview20"
     showgrid="true"
     inkscape:snap-smooth-nodes="true"
     inkscape:snap-midpoints="true"
     inkscape:zoom="14.75"
     inkscape:cx="14.800014"
     inkscape:cy="10.080241"
     inkscape:window-x="0"
     inkscape:window-y="27"
     inkscape:window-maximized="1"
     inkscape:current-layer="svg7384"
     inkscape:snap-intersection-paths="true"
     inkscape:object-paths="true">
    <inkscape:grid
       type="xygrid"
       id="grid827" />
  </sodipodi:namedview>
  <metadata
     id="metadata90">
    <rdf:RDF>
      <cc:Work
         rdf:about="">
        <dc:format>image/svg+xml</dc:format>
        <dc:type
           rdf:resource="http://purl.org/dc/dcmitype/StillImage" />
        <dc:title>Moka Symbolic Icon Theme</dc:title>
      </cc:Work>
    </rdf:RDF>
  </metadata>
  <title
     id="title8473">Moka Symbolic Icon Theme</title>
  <defs
     id="defs7386">
    <linearGradient
       osb:paint="solid"
       id="linearGradient5606">
      <stop
         style="stop-color:#000000;stop-opacity:1;"
         offset="0"
         id="stop5608" />
    </linearGradient>
    <filter
       style="color-interpolation-filters:sRGB"
       id="filter7554">
      <feBlend
         mode="darken"
         in2="BackgroundImage"
         id="feBlend7556" />
    </filter>
  </defs>
  <path
     style="opacity:1;fill:#bebebe;fill-opacity:1;fill-rule:evenodd;stroke:none;stroke-width:2;stroke-linecap:round;stroke-linejoin:round;stroke-miterlimit:4;stroke-dasharray:none;stroke-opacity:1;paint-order:fill markers stroke"
     d="M 3,2 C 2.446,2 2,2.446 2,3 V 7 H 3 V 3 h 3 l 2,1 h 5 v 1 h 1 V 4 C 14,3.446 13.554,3 13,3 H 8.4076314 l -2,-1 z"
     id="rect845"
     inkscape:connector-curvature="0"
     sodipodi:nodetypes="csccccccccscccc" />
  <g
     transform="translate(-703.00023,389.00336)"
     style="display:inline"
     id="layer9" />
  <g
     transform="translate(-703.00023,389.00336)"
     style="display:inline;filter:url(#filter7554)"
     id="layer10" />
  <path
     sodipodi:nodetypes="cscccscccccccccccsc"
     inkscape:connector-curvature="0"
     id="path5144"
     d="m 1,7 v 6.005859 c 0,1.280695 0.8021964,1.994141 2,2 H 13 C 14.249212,15 15,14 15,13.005859 V 5.0058594 5 L 8,5.0058594 5,7 Z M 8.3242188,6.0058594 H 14 v 6.9999996 c 0,0.681837 -0.403208,0.994141 -1,1 H 3 C 2.367102,14 2,13.483865 2,13.005859 V 8 h 3.3242188 z"
     style="color:#000000;font-style:normal;font-variant:normal;font-weight:normal;font-stretch:normal;font-size:medium;line-height:normal;font-family:Sans;-inkscape-font-specification:Sans;text-indent:0;text-align:start;text-decoration:none;text-decoration-line:none;letter-spacing:normal;word-spacing:normal;text-transform:none;writing-mode:lr-tb;direction:ltr;baseline-shift:baseline;text-anchor:start;display:inline;overflow:visible;visibility:visible;fill:#bebebe;fill-opacity:1;stroke:none;stroke-width:2;marker:none;enable-background:accumulate" />
  <g
     transform="translate(-703.00023,389.00336)"
     style="display:inline"
     id="layer14" />
  <g
     transform="translate(-703.00023,389.00336)"
     style="display:inline"
     id="layer15" />
  <g
     transform="translate(-703.00023,389.00336)"
     style="display:inline"
     id="g71291" />
  <g
     transform="translate(-462.00003,-77.996637)"
     style="display:inline"
     id="layer2" />
  <g
     transform="translate(-462.00003,-77.996637)"
     style="display:inline"
     id="g6058" />
  <g
     transform="translate(-703.00023,389.00336)"
     style="display:inline"
     id="layer12" />
</svg>

<svg xmlns="http://www.w3.org/2000/svg" width="16" height="16" enable-background="new"><defs><filter id="a" color-interpolation-filters="sRGB"><feBlend mode="darken" in2="BackgroundImage"/></filter></defs><path d="M3 2c-.554 0-1 .446-1 1v4h1V3h3l2 1h5v1h1V4c0-.554-.446-1-1-1H8.408l-2-1z" fill="#5d656b" fill-rule="evenodd" paint-order="fill markers stroke"/><path d="M1 7v6.006c0 1.28.802 1.994 2 2h10c1.25-.006 2-1.006 2-2V5l-7 .006L5 7zm7.324-.994H14v7c0 .682-.403.994-1 1H3a.998.998 0 0 1-1-1V8h3.324z" style="line-height:normal;-inkscape-font-specification:Sans;text-indent:0;text-align:start;text-decoration-line:none;text-transform:none;marker:none" color="#000" font-weight="400" font-family="Sans" overflow="visible" fill="#5d656b" enable-background="accumulate"/></svg>
